X:1
T:Fairbanks, 76.76 D
T:Fairbanks, 76.76 D
T:Henri Frederick Hemy (1818-1888)
T:Public Domain Courtesy of the Cyber Hymnal™
C:Henri Frederick Hemy (1818-1888)
Z:Public Domain
Z:Courtesy of the Cyber Hymnal™
%%score ( 1 2 ) ( 3 4 )
L:1/8
Q:1/4=110
M:4/4
K:Bb
V:1 treble 
V:2 treble 
V:3 bass 
V:4 bass 
V:1
 [DF]2 | [FB]3 [FB] [FA]2 [FB]2 | [Fc]2 [Fc]4 F2 | [Fc]3 [Fc] [FB]2 [Fc]2 | [Fd]6 [DF]2 | %5
 [Fd]2 [Fd]2 [Ge]2 [Fd]2 | [Ec]4 [EG]2 [EB]2 | [EA]2 [DB]2 [Fd]3 [Ec] | [DB]6 [DB]2 | %9
 [EA]2 [EG]2 [EG]3 [FA] | [EG]2 [DF]4 [DF]2 | [EG]2 [EG]2 [=Ec]3 [GB] | [FA]6 [FA]2 | %13
 [^FA]2 [FA]2 [Ad]3 [Ac] | [GB]4 G2 [EG]2 | [DF]2 [CF]2 [=EG]2 [_EA]2 | [DB]6 |] %17
V:2
 x2 | x8 | x6 F2 | x8 | x8 | x8 | x8 | x8 | x8 | x8 | x8 | x8 | x8 | x8 | x4 G2 x2 | x8 | x6 |] %17
V:3
 B,2 | [B,D]3 [B,D] [CE]2 [B,D]2 | [A,E]2 [A,E]4 [A,E]2 | [F,E]3 [F,E] [F,D]2 [A,E]2 | [B,D]6 B,2 | %5
 B,2 B,2 [B,,B,]2 [B,,B,]2 | [E,G,]4 [E,C]2 [C,C]2 | [F,C]2 [F,B,]2 [F,A,]3 [F,A,] | %8
 [B,,B,]6 [B,,B,]2 | [E,B,]2 [G,B,]2 B,3 B, | [B,,B,]2 [B,,B,]4 [B,,B,]2 | %11
 [E,B,]2 [E,B,]2 [C,C]3 [C,C] | [F,C]6 [F,C]2 | [D,D]2 [D,D]2 [^F,A,]3 [F,D] | %14
 [G,D]4 [E,E]2 [E,B,]2 | [F,B,]2 [F,A,]2 [F,B,]2 [F,C]2 | [B,,B,]6 |] %17
V:4
 B,2 | x8 | x8 | x8 | x6 B,2 | B,2 B,2 x4 | x8 | x8 | x8 | x4 B,3 B, | x8 | x8 | x8 | x8 | x8 | %15
 x8 | x6 |] %17

